X: 1
T: Ballinderry Barn Party
M: 4/4
L: 1/8
R: reel
K: Gmaj
|:~G2 BG eGdG | dBAB GEDE | ~G2 BG eGdG | dBAB ~G3 F |
~G2 BG eGdG | dBAB GEDE | ~G3 A (3B^cd ce | dBAB ~G3 F :|
|: ~g2 bg agab | gede gede | gede gabg | agab a2 df |
~g2 bg agab | gedB AGEF | ~G2 BG dGdG | dBAB ~G3 F :|
